X: 9
T:Miss Earl's Minuet. JB.09
M:3/4
L:1/8
Q:120
S:James Biggins MS, Leeds, 1779.
R:Minuet
O:England
A:Yorkshire
Z:vmp.Nick Barber & Chris Partington
K:D
"no key sig. in ms"A/B/c|dAFAFA|d2f2a2|ecA2G2|{F}G4A2|!B2G2G2|(3FAFD2d2|
fed2c2|d4:|!
|:"s.qu's"fg|afdfba|a2g2f2|bfe2d2|{d}c4Bc|!dAFD df|ecAceg|dagfed|{d}c4Bc
|!dAFA
FA
|d2f2a2|ecA2G2|{G}F4A2|B2G2G2|!(3FAF D2D2|B2G2G2|(3FAFD2d2|f/e/fd2c2|d6:
|]
